X: 47
T:Nyth y Gog
T:The Cuckoo's Nest
M:C
L:1/8
Q:180
S:Mary Richards' (1787-1877) Collection
R:Welsh Hornpipe
A:Wales
N:Yet another Welsh version of this tune!  B.M.
Z:brian_martin12345@yahoo.com
K:Am
AB|cBcA agfe|dcBAG4|c2ceB2Bd|c2B2B2AB|!
cBcA agfe|dcBAG2AB|cBcAG2ed|c2A2A2:||!
d2|g^fga g_bag|^f2d2d4|=fefg fagf|e2c2c4|!
g^fga g_bag|=fede fgfe|dcBAG2AB|c2A2A2:||
